!!!!SEGMENT: pl-wn--sd-xvi-o-244_anonim--kancjonal-zamoyskich-piesn-trzecia-o-przyjsciu-panskim-ojcze-nasz-wszechmocny.krn
!!!cenid: 15xx:802
!!!COM: Anonim
!!!COM-rismID: pe30004985
!!!CDT:
!!!CNT:
!!!GTL: Kancjonał Zamoyskich
!!!OTL: Pieśń trzecia o przyjściu pańskim/Ojcze nasz wszechmocny
!!!PDT: 1558
!!!AGN:
!!!SMS-siglum: PL-Wn
!!!SMS-shelfmark: SD XVI.O.244
!!!SMS-shelfwork: G
!!!SMS-variant:
!!!SMS-altvar:
!!!NIFC-rismSourceID: 990072145
!!!NIFC-rismChildID: 990072145
!!!NIFC-islandoraID: none
!!!URL-pdf-islandora:
!!!URL-scan: https://polona2.pl/item/piesn-trzecia-o-przysciu-panskim,MTE3MjM3NQ/3 @EN{Scan on Polona} @PL{Skany w portalu Polona}
!!!IIIF: https://polona2.pl/iiif/item/MTE3MjM3NQ/manifest.json
!!!ONB-nifc: UWAGA: proszę zapisywać tylko teksty występujące bezpośrednio pod nutami
!!!AIN: 1 alto 1 bass 1 soprn 1 tenor
!!!key: F
**kern	**text	**mod-text	**kern	**text	**mod-text	**kern	**text	**mod-text	**kern	**text	**mod-text
*part4	*part4	*part4	*part3	*part3	*part3	*part2	*staff2	*part2	*part1	*part1	*part1
*staff4	*staff4	*staff4	*staff3	*staff3	*staff3	*staff2	*staff2	*staff2	*staff1	*staff1	*staff1
*I"BAS.	*	*	*I"TENOR	*	*	*I"ALT.	*	*	*I"CANTVS.	*	*
*mI"Basso	*	*	*mI"Tenore	*	*	*mI"Alto	*	*	*mI"Soprano	*	*
*I'B	*	*	*I'T	*	*	*I'A	*	*	*I'S	*	*
*Ibass	*	*	*Itenor	*	*	*Ialto	*	*	*Isoprn	*	*
*ICvox	*	*	*ICvox	*	*	*ICvox	*	*	*ICvox	*	*
*clefF4	*	*	*clefC4	*	*	*clefC3	*	*	*clefC1	*	*
*	*	*	*mclefGv2	*	*	*mclefG2	*	*	*mclefG2	*	*
*k[b-]	*	*	*k[b-]	*	*	*k[b-]	*	*	*k[b-]	*	*
*F:	*	*	*F:	*	*	*F:	*	*	*F:	*	*
*M2/1	*	*	*M2/1	*	*	*M2/1	*	*	*M2/1	*	*
*met(C|)	*	*	*met(C|)	*	*	*met(C|)	*	*	*met(C|)	*	*
*mmet(c|)	*	*	*mmet(c|)	*	*	*mmet(c|)	*	*	*mmet(c|)	*	*
=1-	=1-	=1-	=1-	=1-	=1-	=1-	=1-	=1-	=1-	=1-	=1-
*xywh-#6:792,1621,2076,585	*	*	*xywh-#5:2998,284,2085,871	*	*	*xywh-#6:855,371,2017,599	*	*	*xywh-#5:651,363,2004,795	*	*
!LO:TX:t=P:problem:przy kluczu błędnie D-	!	!	!	!	!	!LO:TX:t=P:problem:przy kluczu błędnie d-	!	!	!	!	!
1F	.	Oj-	1F	Oy-	Oj-	1c	.	Oj-	1f	Oy-	Oj-
1F	.	-cze	1F	-cʒe	-cze	1c	.	-cze	2f/	-cʒe	-cze
.	.	nasz	.	.	.	.	.	nasz	1cc\	náſʒ	nasz
=2-	=2-	=2-	=2-	=2-	=2-	=2-	=2-	=2-	=2-	=2-	=2-
1F	.	nasz	1A	náſʒ	nasz	1f	.	nasz	.	.	.
.	.	.	.	.	.	.	.	.	4b-\	.	.
.	.	.	.	.	.	.	.	.	4a/	.	.
1G	.	wszech-	1B-	wſſech-	wszech-	1d	.	wszech-	2g/	.	.
.	.	.	.	.	.	.	.	.	2g/	wſſech-	wszech-
=3-	=3-	=3-	=3-	=3-	=3-	=3-	=3-	=3-	=3-	=3-	=3-
0C	.	-mo-	0c	-mo-	-mo-	0e	.	-mo-	0g	-mo-	-mo-
=4-	=4-	=4-	=4-	=4-	=4-	=4-	=4-	=4-	=4-	=4-	=4-
0C	.	-cny	0c	-cny	-cny	0e	.	-cny	0g	-cny/	-cny
=5-	=5-	=5-	=5-	=5-	=5-	=5-	=5-	=5-	=5-	=5-	=5-
1G	.	dzi-	1d	.	dzi-	1g	.	dzi-	1b-	dʒi-	dzi-
1C	.	-wny	1e	.	-wny	1g	.	-wny	1cc	-wny	-wny
*	*	*	*	*	*	*	*	*	*custos:a	*	*
!	!	!	!	!	!	!	!	!	!LO:LB:g=original	!	!
=6-	=6-	=6-	=6-	=6-	=6-	=6-	=6-	=6-	=6-	=6-	=6-
*	*	*	*	*	*	*	*	*	*xywh-#5:813,1101,1857,514	*	*
2.D/	.	w_swo-	1f	.	w_swo-	4d/	.	w_swo-	1a	w_wſo-	w_swo-
.	.	.	.	.	.	4e\	.	.	.	.	.
.	.	.	.	.	.	4f\	.	.	.	.	.
4E\	.	.	.	.	.	4g\	.	.	.	.	.
2F\	.	.	1c	.	-jej	2a\	.	.	2a\	-iey	-jej
2E\	.	-jej	.	.	.	2g\	.	-jej	1cc\	mo-	mo-
=7-	=7-	=7-	=7-	=7-	=7-	=7-	=7-	=7-	=7-	=7-	=7-
*lig	*	*	*lig	*	*	*	*	*	*	*	*
1F	.	mo-	1A	.	mo-	1f	.	mo-	.	.	.
.	.	.	.	.	.	.	.	.	4b-\	.	.
.	.	.	.	.	.	.	.	.	4a\	.	.
1G	.	.	1B-	.	.	1d	.	.	1g	.	.
*Xlig	*	*	*Xlig	*	*	*	*	*	*	*	*
*	*	*	*custos:c	*	*	*	*	*	*	*	*
!	!	!	!LO:LB:g=original	!	!	!	!	!	!	!	!
=8-	=8-	=8-	=8-	=8-	=8-	=8-	=8-	=8-	=8-	=8-	=8-
*	*	*	*xywh-#5:2993,1120,2080,452	*	*	*	*	*	*	*	*
0C	.	-cy	0c	.	-cy	0e	.	-cy	0g	-cy/	-cy
=9-	=9-	=9-	=9-	=9-	=9-	=9-	=9-	=9-	=9-	=9-	=9-
1G	.	któ-	1B-	.	któ-	1d	.	któ-	1g	kto-	któ-
*	*	*	*	*	*	*custos:e	*	*	*	*	*
*	*	*	*	*	*	*xywh-#6:894,953,2005,399	*	*	*	*	*
!	!	!	!	!	!	!LO:SIC:v:s=1c	!	!	!	!	!
1C	.	-ryś	1G	.	-ryś	1e	.	-ryś	1e	-rys	-ryś
*custos:F	*	*	*	*	*	*	*	*	*	*	*
!LO:LB:g=original	!	!	!	!	!	!	!	!	!	!	!
=10-	=10-	=10-	=10-	=10-	=10-	=10-	=10-	=10-	=10-	=10-	=10-
*xywh-#6:882,2174,1985,471	*	*	*	*	*	*	*	*	*	*	*
!	!	!	!	!	!	!LO:SIC:v:s=1c	!	!	!	!	!
1F	.	dał	1A	.	dał	1e	.	dał	1f	dał	dał
2.G\	.	Sy-	1B-	.	Sy-	4G/	.	Sy-	2d/	ſy-	Sy-
.	.	.	.	.	.	4A/	.	.	.	.	.
*	*	*	*	*	*	*	*	*	*custos:g	*	*
*	*	*	*	*	*	*	*	*	*xywh-#5:804,1572,1857,485	*	*
!	!	!	!	!	!	!	!	!	!LO:LB:g=original	!	!
.	.	.	.	.	.	4B-/	.	.	2.g/	.	.
4F\	.	.	.	.	.	4c/	.	.	.	.	.
=11-	=11-	=11-	=11-	=11-	=11-	=11-	=11-	=11-	=11-	=11-	=11-
*	*	*	*lig	*	*	*	*	*	*	*	*
4D\	.	.	1A	.	-na	2d\	.	.	.	.	.
4E\	.	.	.	.	.	.	.	.	4f/	.	.
2F\	.	.	.	.	.	1.c	.	-na	1f	-ná	-na
1C	.	-na	1G	.	.	.	.	.	.	.	.
.	.	.	.	.	.	.	.	.	2e/	.	.
*	*	*	*Xlig	*	*	*	*	*	*	*	*
=12-	=12-	=12-	=12-	=12-	=12-	=12-	=12-	=12-	=12-	=12-	=12-
0FF	.	nam	0F	.	nam	0A	.	nam	0f	nam/	nam
=13-	=13-	=13-	=13-	=13-	=13-	=13-	=13-	=13-	=13-	=13-	=13-
1C	.	a-	1E	.	a-	1c	.	a-	1g	a-	a-
1FF	.	-byś	1F	.	-byś	2c/	.	-byś	1a	-bys	-byś
.	.	.	.	.	.	1f\	.	w_ła-	.	.	.
=14-	=14-	=14-	=14-	=14-	=14-	=14-	=14-	=14-	=14-	=14-	=14-
1C	.	w_ła-	1G	.	w_ła-	.	.	.	1g	w_ła-	w_ła-
.	.	.	.	.	.	2e\	.	.	.	.	.
2FF/	.	.	1A	.	.	2.c/	.	.	1f	-ſce	.
1F\	.	.	.	.	.	.	.	.	.	.	.
.	.	.	.	.	.	4B-/	.	.	.	.	.
*	*	*	*custos:G	*	*	*	*	*	*	*	*
!	!	!	!LO:LB:g=original	!	!	!	!	!	!	!	!
=15-	=15-	=15-	=15-	=15-	=15-	=15-	=15-	=15-	=15-	=15-	=15-
*	*	*	*xywh-#5:2991,1535,1980,509	*	*	*	*	*	*	*	*
*	*	*	*lig	*	*	*	*	*	*lig	*	*
.	.	.	1G	.	-sce	4c/	.	.	1g	był	-sce
.	.	.	.	.	.	4d/	.	.	.	.	.
2E\	.	.	.	.	.	2e\	.	.	.	.	.
!	!	!	!	!	!	!LO:SIC:v:t=błędna wysokość custos	!	!	!	!	!
1D	.	.	1F	.	.	2f\	.	-sce	1a	.	.
*	*	*	*	*	*	*custos:B	*	*	*	*	*
*	*	*	*	*	*	*xywh-#6:877,1307,1982,388	*	*	*	*	*
.	.	.	.	.	.	2.d/	.	był	.	.	.
*	*	*	*Xlig	*	*	*	*	*	*Xlig	*	*
=16-	=16-	=16-	=16-	=16-	=16-	=16-	=16-	=16-	=16-	=16-	=16-
*	*	*	*lig	*	*	*	*	*	*	*	*
!	!	!	!	!	!	!	!	!	!LO:SIC:v:t=błędna wysokość custos	!	!
2E\	.	-sce	1E	.	był	.	.	.	2g/	.	był
.	.	.	.	.	.	4c/	.	.	.	.	.
*	*	*	*	*	*	*	*	*	*custos:g	*	*
*	*	*	*	*	*	*	*	*	*xywh-#5:680,1998,1971,571	*	*
!	!	!	!	!	!	!	!	!	!LO:LB:g=original	!	!
1G	.	był	.	.	.	1c	.	.	2e/	.	.
.	.	.	1D	.	.	.	.	.	1f	.	.
!	!	!	!	!	!	!LO:SIC:s=2Bi	!	!	!	!	!
2F\	.	.	.	.	.	2B-/	.	.	.	.	.
*	*	*	*Xlig	*	*	*	*	*	*	*	*
=17-	=17-	=17-	=17-	=17-	=17-	=17-	=17-	=17-	=17-	=17-	=17-
!	!	!	!LO:N:vis=1	!	!	!	!	!	!	!	!
0G	.	znan	0C	.	znan	0c	.	znan	0e	ʒnan.	znan
*custos:F	*	*	*	*	*	*	*	*	*	*	*
!LO:LB:g=original	!	!	!	!	!	!	!	!	!	!	!
=18-	=18-	=18-	=18-	=18-	=18-	=18-	=18-	=18-	=18-	=18-	=18-
*xywh-#6:859,2603,1976,604	*	*	*	*	*	*	*	*	*	*	*
1F	.	da-	1F	.	da-	2r	.	.	1a	da-	da-
.	.	.	.	.	.	1f	.	da-	.	.	.
1C	.	-łeś	1G	.	-łeś	.	.	.	1g	-łes	-łeś
.	.	.	.	.	.	2e\	.	-łeś	.	.	.
=19-	=19-	=19-	=19-	=19-	=19-	=19-	=19-	=19-	=19-	=19-	=19-
*	*	*	*lig	*	*	*	*	*	*	*	*
2.F\	.	na	1A	.	na	1f	.	na	4f/	ná	na
.	.	.	.	.	.	.	.	.	4g/	.	.
.	.	.	.	.	.	.	.	.	4a/	.	.
4G\	.	.	.	.	.	.	.	.	4b-\	.	.
4A\	.	.	1F	.	.	1f	.	świat	2.cc\	.	.
4B-\	.	.	.	.	.	.	.	.	.	.	.
2.c\	.	.	.	.	.	.	.	.	.	.	.
!	!	!	!	!	!	!	!	!	!LO:SIC:s=8b-L	!	!
.	.	.	.	.	.	.	.	.	8b-\	.	.
!	!	!	!	!	!	!	!	!	!LO:SIC:s=8aJ	!	!
.	.	.	.	.	.	.	.	.	8a\	.	.
*	*	*	*Xlig	*	*	*	*	*	*	*	*
=20-	=20-	=20-	=20-	=20-	=20-	=20-	=20-	=20-	=20-	=20-	=20-
.	.	.	1c	.	świat	2.e\	.	je-	2g/	.	świat
4B-\	.	.	.	.	.	.	.	.	.	.	.
*	*	*	*	*	*	*	*	*	*custos:cc	*	*
*	*	*	*	*	*	*	*	*	*xywh-#5:761,2498,1900,609	*	*
!	!	!	!	!	!	!	!	!	!LO:LB:g=original	!	!
2A\	.	świat	.	.	.	.	.	.	1cc	ſwiát	je-
.	.	.	.	.	.	4f\	.	.	.	.	.
1G	.	je-	1d	.	je-	1g	.	.	.	.	.
!	!	!	!	!	!	!	!	!	!LO:SIC:s=2bi	!	!
.	.	.	.	.	.	.	.	.	2b-\	ie-	.
=21-	=21-	=21-	=21-	=21-	=21-	=21-	=21-	=21-	=21-	=21-	=21-
0C	.	-go	0c	.	-go	0e	.	-go	0cc	-go/	-go
=22-	=22-	=22-	=22-	=22-	=22-	=22-	=22-	=22-	=22-	=22-	=22-
1F	.	bądź-	1F	.	bądź-	1f	.	bądź-	1cc	bądʒ-	bądź-
*	*	*	*custos:G	*	*	*	*	*	*	*	*
*	*	*	*xywh-#5:3039,2037,1895,547	*	*	*	*	*	*	*	*
!	!	!	!LO:LB:g=original	!	!	!	!	!	!	!	!
1C	.	-żeć	1G	.	-żeć	1e	.	-żeć	1cc	-żeć	-żeć
=23-	=23-	=23-	=23-	=23-	=23-	=23-	=23-	=23-	=23-	=23-	=23-
1F	.	dzię-	1A	.	dzię-	1c	.	dzię-	1a	dźię-	dzię-
1BB-	.	-ka	1B-	.	-ka	1d	.	-ka	2f/	.	-ka
.	.	.	.	.	.	.	.	.	2.g/	.	.
=24-	=24-	=24-	=24-	=24-	=24-	=24-	=24-	=24-	=24-	=24-	=24-
*	*	*	*lig	*	*	*	*	*	*	*	*
0C	.	z_nie-	1A	.	z_nie-	0c	.	z_nie-	.	.	.
.	.	.	.	.	.	.	.	.	4f/	.	.
.	.	.	.	.	.	.	.	.	1f	-ka	z_nie-
.	.	.	1G	.	.	.	.	.	.	.	.
.	.	.	.	.	.	.	.	.	2e/	ʒ_nie-	.
*	*	*	*Xlig	*	*	*	*	*	*	*	*
=25-	=25-	=25-	=25-	=25-	=25-	=25-	=25-	=25-	=25-	=25-	=25-
!LO:SIC:s=0FF;	!	!	!LO:SIC:s=0F;	!	!	!LO:SIC:v:s=0c;	!	!	!LO:SIC:s=0f;	!	!
0FFl	.	-go.	0Fl	.	-go.	0el	.	-go.	0fl\	-go.	-go.
==	==	==	==	==	==	==	==	==	==	==	==
*-	*-	*-	*-	*-	*-	*-	*-	*-	*-	*-	*-
!!!system-decoration: [(*)]
!!LO:MO:ori
!!!RDF**kern: l = terminal long
!!LO:MO:mod
!! !!!RDF**kern: i = editorial accidental
!!LO:MO:end
!!!filter-modern: shed -e "s/TX(.*):t=P:/tx$1:t=P:/LG" | shed -e "s/^custos:/Xcustos:/I" | sic -sq | modori -m | autostem -r | tie -s | humtr -p | shed -e "s/-//B"
!!!ENC: Andrzej Kubiczek
!!!END: 2022-04-25
!!!ENC: Andrzej Kubiczek
!!!END: 2022-04-26
!!!ENC-modern: Andrzej Kubiczek
!!!END-modern: 2022-07-24
!!!ENC-iiif: Emilia Ziętek
!!!END-iiif: 2022-09-02
!!!YEC: Copyright 2022 Narodowy Instytut Fryderyka Chopina (https://polishscores.org)
!!!YEM: License CC-BY-4.0 (https://creativecommons.org/licenses/by/4.0)
